svgs/light/file-spreadsheet.svg

<svg xmlns="http://www.w3.org/2000/svg" viewBox="0 0 384 512"><!-- Font Awesome Pro 6.0.0-alpha2 by @fontawesome - https://fontawesome.com License - https://fontawesome.com/license (Commercial License) --><path d="M365.256 125.254L258.746 18.746C246.744 6.742 230.465 0 213.49 0H64C28.654 0 0 28.654 0 64V448C0 483.346 28.654 512 64 512H320C355.348 512 384 483.346 384 448V170.51C384 153.535 377.258 137.258 365.256 125.254ZM224 34.076C228.477 35.643 232.666 37.922 236.119 41.375L342.627 147.879C346.08 151.332 348.357 155.523 349.924 160H240C231.188 160 224 152.828 224 144V34.076ZM352 448C352 465.645 337.645 480 320 480H64C46.355 480 32 465.645 32 448V64C32 46.355 46.355 32 64 32H192V144C192 170.469 213.531 192 240 192H352V448ZM64 256V416C64 433.674 78.328 448 96 448H288C305.674 448 320 433.674 320 416V256C320 238.326 305.674 224 288 224H96C78.328 224 64 238.326 64 256ZM128 416H96V384H128V416ZM128 352H96V320H128V352ZM224 416H160V384H224V416ZM224 352H160V320H224V352ZM288 416H256V384H288V416ZM288 352H256V320H288V352ZM288 288H96V256H288V288Z"/></svg>

<svg xmlns="http://www.w3.org/2000/svg" viewBox="0 0 384 512"><!--! Font Awesome Pro 6.3.0 by @fontawesome - https://fontawesome.com License - https://fontawesome.com/license (Commercial License) Copyright 2023 Fonticons, Inc. --><path d="M365.3 125.3l-106.5-106.5C246.7 6.742 230.5 0 213.5 0H64C28.65 0 0 28.65 0 64l.0065 384c0 35.35 28.65 64 64 64H320c35.35 0 64-28.65 64-64V170.5C384 153.5 377.3 137.3 365.3 125.3zM224 34.08c4.477 1.566 8.666 3.846 12.12 7.299l106.5 106.5C346.1 151.3 348.4 155.5 349.9 160H240C231.2 160 224 152.8 224 144V34.08zM352 448c0 17.64-14.36 32-32 32H64c-17.64 0-32-14.36-32-32V64c0-17.64 14.36-32 32-32h128v112C192 170.5 213.5 192 240 192H352V448zM64 256v160c0 17.67 14.33 32 32 32h192c17.67 0 32-14.33 32-32V256c0-17.67-14.33-32-32-32H96C78.33 224 64 238.3 64 256zM128 416H96v-32h32V416zM128 352H96v-32h32V352zM224 416H160v-32h64V416zM224 352H160v-32h64V352zM288 416h-32v-32h32V416zM288 352h-32v-32h32V352zM288 288H96V256h192V288z"/></svg>
